img/spotify-wordmark 1.svg

<svg width="106" height="32" viewBox="0 0 106 32" fill="none" xmlns="http://www.w3.org/2000/svg">
<g clip-path="url(#clip0_98_1285)">
<path d="M15.9276 0.0527344C7.15763 0.0527344 0.0478516 7.19426 0.0478516 16.0036C0.0478516 24.8133 7.15763 31.9543 15.9276 31.9543C24.6984 31.9543 31.8075 24.8133 31.8075 16.0036C31.8075 7.19483 24.6984 0.0534963 15.9274 0.0534963L15.9276 0.0527344ZM23.2099 23.0584C22.9255 23.527 22.3149 23.6756 21.8484 23.388C18.12 21.1004 13.4264 20.5823 7.89887 21.8508C7.36621 21.9727 6.83527 21.6375 6.71391 21.1023C6.59198 20.567 6.92439 20.0337 7.45837 19.9118C13.5074 18.5236 18.6961 19.1213 22.8818 21.6908C23.3483 21.9784 23.4962 22.5899 23.2099 23.0584ZM25.1535 18.7152C24.7952 19.3004 24.0329 19.4851 23.4507 19.1251C19.1823 16.4897 12.6757 15.7264 7.62695 17.2659C6.97217 17.4645 6.28061 17.0939 6.08189 16.4373C5.88468 15.7796 6.25388 15.0863 6.90751 14.8863C12.6746 13.1285 19.8441 13.98 24.7458 17.0057C25.328 17.3657 25.5119 18.1312 25.1535 18.7152ZM25.3204 14.1925C20.2025 11.139 11.7585 10.8583 6.87205 12.348C6.08739 12.587 5.25759 12.1421 5.0198 11.3539C4.78201 10.5653 5.2246 9.73235 6.00983 9.49273C11.6191 7.78226 20.9439 8.11273 26.8363 11.6264C27.5436 12.0472 27.7749 12.9628 27.3558 13.6708C26.9387 14.3798 26.0247 14.6135 25.3212 14.1925H25.3204ZM43.2513 14.7777C40.5093 14.1209 40.022 13.66 40.022 12.6914C40.022 11.7764 40.8791 11.1605 42.1553 11.1605C43.3916 11.1605 44.6166 11.6282 45.9022 12.5908C45.9402 12.62 45.9895 12.6316 46.0369 12.624C46.0862 12.6167 46.1279 12.5903 46.1563 12.5504L47.4951 10.6548C47.5501 10.5767 47.5349 10.4691 47.4609 10.4095C45.9307 9.17654 44.2089 8.57712 42.1951 8.57712C39.235 8.57712 37.1662 10.3617 37.1662 12.915C37.1662 15.6531 38.9506 16.6226 42.0339 17.371C44.6564 17.9781 45.1001 18.4866 45.1001 19.3956C45.1001 20.4032 44.2051 21.0299 42.764 21.0299C41.1635 21.0299 39.857 20.487 38.3969 19.2184C38.3609 19.1861 38.3116 19.1727 38.2661 19.1746C38.2168 19.1784 38.1731 19.2013 38.1428 19.2375L36.641 21.0318C36.5784 21.108 36.586 21.2184 36.6581 21.2832C38.3571 22.807 40.4467 23.6108 42.7033 23.6108C45.8928 23.6108 47.954 21.8604 47.954 19.1499C47.9597 16.8628 46.5963 15.5962 43.257 14.7802L43.2513 14.7777ZM55.1711 12.0615C53.7887 12.0615 52.6548 12.6085 51.718 13.7295V12.4678C51.718 12.3682 51.6384 12.287 51.5398 12.287H49.0841C48.9855 12.287 48.9059 12.3682 48.9059 12.4678V26.487C48.9059 26.5861 48.9855 26.668 49.0841 26.668H51.5398C51.6384 26.668 51.718 26.5861 51.718 26.487V22.0623C52.6548 23.1156 53.7887 23.6318 55.1711 23.6318C57.7405 23.6318 60.3421 21.6451 60.3421 17.8472C60.3459 14.0485 57.7443 12.0613 55.173 12.0613L55.1711 12.0615ZM57.4864 17.8472C57.4864 19.7804 56.3012 21.1308 54.6022 21.1308C52.924 21.1308 51.6573 19.7194 51.6573 17.8472C51.6573 15.9748 52.924 14.5638 54.6022 14.5638C56.2728 14.5636 57.4864 15.9444 57.4864 17.8472ZM67.0074 12.0615C63.6985 12.0615 61.1063 14.6207 61.1063 17.8885C61.1063 21.1213 63.6814 23.6527 66.9676 23.6527C70.2879 23.6527 72.8877 21.1023 72.8877 17.8472C72.8877 14.6032 70.305 12.0619 67.0074 12.0619V12.0615ZM67.0074 21.1499C65.2477 21.1499 63.9203 19.7289 63.9203 17.8463C63.9203 15.955 65.2022 14.5826 66.9676 14.5826C68.7387 14.5826 70.0737 16.003 70.0737 17.8876C70.0737 19.7785 68.7842 21.1499 67.0074 21.1499ZM79.9531 12.287H77.2509V9.51254C77.2509 9.41312 77.1713 9.33197 77.0727 9.33197H74.6171C74.5184 9.33197 74.4369 9.41312 74.4369 9.51254V12.287H73.2574C73.1588 12.287 73.0792 12.3682 73.0792 12.4678V14.5872C73.0792 14.6866 73.1588 14.768 73.2574 14.768H74.4369V20.2527C74.4369 22.468 75.5348 23.5918 77.7022 23.5918C78.5821 23.5918 79.3121 23.4089 80.0005 23.0165C80.0574 22.9861 80.0915 22.9251 80.0915 22.8604V20.8413C80.0915 20.7804 80.0593 20.7213 80.0062 20.6889C79.9531 20.6546 79.8867 20.6527 79.8317 20.6813C79.3596 20.9194 78.9026 21.0299 78.3906 21.0299C77.6036 21.0299 77.2509 20.6699 77.2509 19.8661V14.7689H79.9531C80.0517 14.7689 80.1313 14.6878 80.1313 14.5882V12.4689C80.1351 12.3693 80.0555 12.2882 79.955 12.2882L79.9531 12.287ZM89.366 12.2979V11.9571C89.366 10.9546 89.7491 10.5076 90.6062 10.5076C91.1182 10.5076 91.5296 10.6097 91.9904 10.764C92.0473 10.7819 92.1061 10.7729 92.1516 10.7388C92.199 10.7047 92.2256 10.6501 92.2256 10.5922V8.51407C92.2256 8.43464 92.1763 8.36435 92.0985 8.34093C91.6131 8.19559 90.9911 8.04645 90.0582 8.04645C87.7921 8.04645 86.5918 9.32911 86.5918 11.7544V12.2764H85.4124C85.3138 12.2764 85.2322 12.3575 85.2322 12.4569V14.5872C85.2322 14.6866 85.3138 14.768 85.4124 14.768H86.5918V23.2261C86.5918 23.327 86.6734 23.407 86.772 23.407H89.2257C89.3262 23.407 89.4058 23.327 89.4058 23.2261V14.7685H91.6984L95.2103 23.2261C94.812 24.1137 94.4195 24.2908 93.8848 24.2908C93.4524 24.2908 92.9954 24.1613 92.5309 23.9042C92.4872 23.8813 92.4342 23.8775 92.3886 23.8908C92.3412 23.908 92.3014 23.9423 92.2825 23.988L91.45 25.8223C91.4102 25.9099 91.4443 26.0108 91.5277 26.0565C92.3962 26.5289 93.1794 26.7308 94.1484 26.7308C95.9612 26.7308 96.9643 25.8813 97.846 23.5994L102.105 12.5447C102.128 12.4891 102.12 12.4263 102.086 12.3769C102.054 12.328 101.999 12.2984 101.94 12.2984H99.3839C99.3061 12.2984 99.2379 12.3474 99.2132 12.4196L96.5945 19.9308L93.7274 12.4146C93.7008 12.3447 93.6345 12.2984 93.5605 12.2984H89.366V12.2979ZM83.9086 12.287H81.453C81.3544 12.287 81.2729 12.3682 81.2729 12.4678V23.2261C81.2729 23.327 81.3544 23.407 81.453 23.407H83.9086C84.0072 23.407 84.0888 23.327 84.0888 23.2261V12.4685C84.0888 12.3689 84.0091 12.2878 83.9086 12.2878V12.287ZM82.695 7.38816C81.7223 7.38816 80.9334 8.17902 80.9334 9.15597C80.9334 10.1335 81.7223 10.9253 82.695 10.9253C83.6678 10.9253 84.4548 10.1335 84.4548 9.15597C84.4548 8.17921 83.6659 7.38816 82.695 7.38816ZM104.202 15.7463C103.231 15.7463 102.475 14.9624 102.475 14.0106C102.475 13.0588 103.241 12.2661 104.212 12.2661C105.183 12.2661 105.939 13.0497 105.939 14.0007C105.939 14.9525 105.173 15.7463 104.202 15.7463ZM104.212 12.4386C103.326 12.4386 102.657 13.1453 102.657 14.0106C102.657 14.8756 103.322 15.5727 104.202 15.5727C105.088 15.5727 105.757 14.8666 105.757 14.0007C105.757 13.1358 105.092 12.4386 104.212 12.4386ZM104.595 14.1792L105.084 14.8664H104.671L104.231 14.236H103.853V14.8664H103.508V13.0447H104.316C104.739 13.0447 105.016 13.2613 105.016 13.6259C105.018 13.9245 104.845 14.107 104.597 14.1792H104.595ZM104.303 13.3573H103.853V13.9335H104.303C104.526 13.9335 104.661 13.8232 104.661 13.6451C104.661 13.4577 104.526 13.3573 104.303 13.3573Z" fill="#FAD9C4"/>
</g>
<defs>
<clipPath id="clip0_98_1285">
<rect width="106" height="32" fill="white"/>
</clipPath>
</defs>
</svg>

<svg xmlns="http://www.w3.org/2000/svg" width="106" height="32" fill="none"><g clip-path="url(#a)"><path fill="#FAD9C4" d="M15.928.053C7.158.053.048 7.194.048 16.003c0 8.81 7.11 15.951 15.88 15.951s15.88-7.14 15.88-15.95S24.698.054 15.928.054zm7.282 23.005a.987.987 0 0 1-1.362.33c-3.728-2.288-8.422-2.806-13.95-1.537a.99.99 0 0 1-1.184-.749.993.993 0 0 1 .744-1.19c6.05-1.388 11.238-.79 15.424 1.779.466.287.614.899.328 1.367m1.944-4.343c-.359.585-1.121.77-1.703.41-4.269-2.635-10.775-3.399-15.824-1.86a1.24 1.24 0 0 1-1.545-.828 1.246 1.246 0 0 1 .826-1.55c5.767-1.758 12.936-.907 17.838 2.119.582.36.766 1.125.408 1.71m.166-4.522c-5.117-3.054-13.561-3.335-18.448-1.845a1.484 1.484 0 0 1-1.852-.994 1.494 1.494 0 0 1 .99-1.861c5.61-1.71 14.934-1.38 20.826 2.133.708.421.939 1.337.52 2.045a1.48 1.48 0 0 1-2.035.522m17.931.585c-2.742-.657-3.229-1.118-3.229-2.087 0-.915.857-1.53 2.133-1.53 1.237 0 2.462.467 3.747 1.43.038.029.087.04.135.033a.18.18 0 0 0 .12-.074l1.338-1.895a.18.18 0 0 0-.034-.245c-1.53-1.233-3.252-1.833-5.266-1.833-2.96 0-5.029 1.785-5.029 4.338 0 2.738 1.785 3.708 4.868 4.456 2.622.607 3.066 1.116 3.066 2.025 0 1.007-.895 1.634-2.336 1.634-1.6 0-2.907-.543-4.367-1.812a.177.177 0 0 0-.254.02l-1.502 1.794a.18.18 0 0 0 .017.251c1.7 1.524 3.789 2.328 6.045 2.328 3.19 0 5.251-1.75 5.251-4.461.006-2.287-1.358-3.554-4.697-4.37zm11.92-2.716c-1.382 0-2.516.547-3.453 1.668v-1.262c0-.1-.08-.181-.178-.181h-2.456a.18.18 0 0 0-.178.18v14.02c0 .1.08.181.178.181h2.456a.18.18 0 0 0 .178-.181v-4.425c.937 1.054 2.07 1.57 3.453 1.57 2.57 0 5.171-1.987 5.171-5.785.004-3.799-2.598-5.786-5.169-5.786zm2.315 5.785c0 1.933-1.185 3.284-2.884 3.284-1.678 0-2.945-1.412-2.945-3.284s1.267-3.283 2.945-3.283c1.67 0 2.884 1.38 2.884 3.283m9.521-5.786c-3.309 0-5.9 2.56-5.9 5.828 0 3.232 2.574 5.764 5.86 5.764 3.32 0 5.92-2.55 5.92-5.806 0-3.244-2.582-5.785-5.88-5.785m0 9.089c-1.76 0-3.087-1.421-3.087-3.304 0-1.891 1.282-3.263 3.048-3.263 1.77 0 3.106 1.42 3.106 3.305 0 1.89-1.29 3.262-3.067 3.262m12.946-8.863h-2.702V9.513c0-.1-.08-.181-.178-.181h-2.456a.18.18 0 0 0-.18.18v2.775h-1.18a.18.18 0 0 0-.178.18v2.12c0 .1.08.181.178.181h1.18v5.485c0 2.215 1.098 3.339 3.265 3.339.88 0 1.61-.183 2.299-.575a.18.18 0 0 0 .09-.157v-2.019a.18.18 0 0 0-.26-.16c-.471.238-.928.349-1.44.349-.787 0-1.14-.36-1.14-1.164V14.77h2.702a.18.18 0 0 0 .178-.18v-2.12a.174.174 0 0 0-.176-.18zm9.413.01v-.34c0-1.002.383-1.45 1.24-1.45.512 0 .924.103 1.384.257a.18.18 0 0 0 .235-.172V8.514c0-.08-.049-.15-.126-.173a6.7 6.7 0 0 0-2.04-.295c-2.267 0-3.467 1.283-3.467 3.708v.522h-1.18a.18.18 0 0 0-.18.18v2.131c0 .1.082.181.18.181h1.18v8.458c0 .101.081.181.18.181h2.454c.1 0 .18-.08.18-.18v-8.458h2.292l3.512 8.457c-.398.888-.79 1.065-1.325 1.065-.433 0-.89-.13-1.354-.387a.2.2 0 0 0-.142-.013.18.18 0 0 0-.106.097l-.833 1.834a.18.18 0 0 0 .078.235c.868.472 1.651.674 2.62.674 1.813 0 2.816-.85 3.698-3.132l4.259-11.054a.18.18 0 0 0-.019-.168.17.17 0 0 0-.146-.079h-2.556a.18.18 0 0 0-.17.122l-2.62 7.51-2.867-7.515a.18.18 0 0 0-.166-.117h-4.195m-5.457-.01h-2.456a.18.18 0 0 0-.18.18v10.76c0 .1.081.18.18.18h2.456a.18.18 0 0 0 .18-.18V12.468c0-.1-.08-.181-.18-.181zm-1.214-4.899c-.973 0-1.762.791-1.762 1.768s.79 1.77 1.762 1.77c.973 0 1.76-.793 1.76-1.77s-.79-1.768-1.76-1.768m21.507 8.358a1.725 1.725 0 0 1-1.727-1.735 1.74 1.74 0 0 1 1.737-1.745c.971 0 1.727.784 1.727 1.735s-.766 1.745-1.737 1.745m.01-3.307c-.886 0-1.555.706-1.555 1.572 0 .865.665 1.562 1.545 1.562.886 0 1.555-.706 1.555-1.572 0-.865-.665-1.562-1.545-1.562m.383 1.74.489.687h-.413l-.44-.63h-.378v.63h-.345v-1.821h.808c.423 0 .7.216.7.58.002.3-.171.482-.419.554zm-.292-.822h-.45v.577h.45c.223 0 .358-.11.358-.289 0-.187-.135-.288-.358-.288"/></g><defs><clipPath id="a"><path fill="#fff" d="M0 0h106v32H0z"/></clipPath></defs></svg>
